unite@hardpixel.eu/themes/default-light/maximize-hover.svg

<svg height="16" width="16" xmlns="http://www.w3.org/2000/svg">
  <path d="m7.9980469 1c-1.7914561.0005827-3.5828284.685455-4.9492188 2.0527344-2.73278074 2.7345591-2.73065287 7.1656576.0039063 9.8984376 2.7345536 2.732786 7.1656516 2.730648 9.8984376-.003906s2.730647-7.1656517-.003906-9.8984379c-1.36728-1.3663902-3.1577631-2.0494108-4.9492191-2.0488281zm-2.1640625 4h4.3320316c.41743.00104.835984.4066744.833984.8339844v5.1660156h-6v-5.1660156c0-.42695.4170244-.8239844.8339844-.8339844zm1.1660156 2v2h2v-2z" fill="#7e7e7e"/>
</svg>

<?xml version="1.0" encoding="UTF-8" standalone="no"?>
<svg xmlns="http://www.w3.org/2000/svg" version="1.0" height="16" width="16">
  <path fill="#7e7e7e" d="M 7.9980469,1 C 6.2065908,1.0005827 4.4152185,1.685455 3.0488281,3.0527344 0.31604736,5.7872935 0.31817523,10.218392 3.0527344,12.951172 5.787288,15.683958 10.218386,15.68182 12.951172,12.947266 15.683958,10.212712 15.681819,5.7816143 12.947266,3.0488281 11.579986,1.6824379 9.7895029,0.9994173 7.9980469,1 Z M 5.8339844,5 H 10.166016 C 10.583446,5.00104 11.002,5.4066744 11,5.8339844 V 11 H 5 V 5.8339844 C 5,5.4070344 5.4170244,5.01 5.8339844,5 Z M 7,7 V 9 H 9 V 7 Z" />
</svg>
